X: 36819
T: Shetlands
R: reel
M: 4/4
K: Amajor
|:f2 f f d2 dd|A2 AA F2 FF|E2 G2 F2 E2|1 D2 F2 A2 A,2:|2 D4 D4||
|:c2 cc c2 cc|c2 cc c2 cc|B2 d2 c2 B2|A2 c2 e2 A,2|
cA cA cA cA|cA cA cA cA|B2 d2 c2 B2|A4 A4:|

